X: 30557
T: Once I Caught A Fish Alive
R: polka
M: 2/4
K: Dmajor
|:f2 f2|ed d2|cd ef|ag g2|
g2 g2|fe e2|dc Bc|1 BA A2:|2 ed d2||
|:af f2|af f2|af bf|ag g2|
ge e2|ge e2|1 ge ag|gf f2:|2 ag fe|d2 d2||

